!!!!SEGMENT: pl-wtm--1048-sp-5843_szymanowski-karol--zulejka-op-13-no-4-nie-aniolom-tkajacym.krn
!!!cenid: 19xx:65
!!!COM: Szymanowski, Karol
!!!COM-rismID: pe30106403
!!!CDT: 1882-1937
!!!CNT: Polish
!!!OTL: Zulejka Op. 13 No. 4/Nie aniołom tkającym
!!!PDT: 1911
!!!AGN: Secular; Song
!!!YEC: Copyright 2022 Narodowy Instytut Fryderyka Chopina (https://polishscores.org)
!!!YEM: License CC-BY-4.0 (https://creativecommons.org/licenses/by/4.0)
!!!SMS-siglum: PL-Wtm
!!!SMS-shelfmark: 1048 śp 5843
!!!SMS-variant:
!!!SMS-altvar:
!!!SMS-shelfwork: W
!!!NIFC-rismSourceID: 1001198837
!!!NIFC-rismChildID: 1001198837
!!!NIFC-islandoraID: pl-wtm:55567
!!!URL-pdf-islandora: https://repozytorium.nifc.pl/islandora/object/pl-wtm%3A55567/datastream/PDF/view
!!!URL-scan: https://polish.musicsources.pl/pl/lokalizacje/galeria/druki-muzyczne/18372/3 @EN{Scan on Polish Music Sources Website} @PL{Skany w portalu Dziedzictwo Muzyki Polskiej w otwartym dostępie}
!!!IIIF:
!!!ONB-nifc:
!!!AIN: 2 piano 1 vox
!!!key: D-
**kern	**kern	**dynam	**kern	**text	**text	**dynam
*part3	*part2	*part2	*part1	*part1	*part1	*part1
*staff3	*staff2	*	*staff1	*staff1	*staff1	*
*I"[Piano]	*I"[Piano]	*	*I"[Voce]	*	*	*
*I'[pf]	*I'[pf]	*	*I'[V]	*	*	*
*ICklav	*ICklav	*	*ICvox	*	*	*
*Ipiano	*Ipiano	*	*Ivox	*	*	*
*clefF4	*clefG2	*	*clefG2	*	*	*
*k[b-e-a-d-g-]	*k[b-e-a-d-g-]	*	*k[b-e-a-d-g-]	*	*	*
*D-:	*D-:	*	*D-:	*	*	*
*M9/8	*M9/8	*	*M9/8	*	*	*
=1	=1	=1	=1	=1	=1	=1
*	*^	*	*	*	*	*
!	!	!	!	!LO:TX:a:B:t=Andantino; dolce amoroso.	!	!	!
8r	(4d-~/ 4f	(8B--\L	pp	8%9r	.	.	.
4DD-'/ 4D-	.	8A-\	.	.	.	.	.
.	8d-'/) 8f	8B--\J)	.	.	.	.	.
8r	(4d-~/ 4f	(8B--\L	.	.	.	.	.
4DD-'/ 4D-	.	8A-\	.	.	.	.	.
.	8d-'/) 8f	8B--\J)	.	.	.	.	.
8r	(4d-~/ 4f	(8B--\L	.	.	.	.	.
!	!	!LO:N:n=1:acc=n-	!	!	!	!	!
4DD-'/ 4D-	.	8B-X\	.	.	.	.	.
.	8d-'/) 8f	8B--\J)	.	.	.	.	.
*	*v	*v	*	*	*	*	*
=2	=2	=2	=2	=2	=2	=2
!	!	!	!	!	!	!LO:DY:a
!	!	!	!LO:TX:i:a:t=espr.	!	!	!LO:HP:a
8A-\L 8f	(>4d-/ 4a- 4dd-	p <	4dd-\	Nicht	Nie	p <
8DD-\ 8D-	.	.	.	.	.	.
8An\J 8e-	8c/ 8f 8cc	.	8cc\	mit	a-	.
8B-\L 8d-	4d-/ 4f 4dd-	.	8dd-\	En-	-nio-	.
8DD-\ 8D-	.	.	8dd-\	-geln	-łom	.
8A\J 8e-	8c/ 8f 8cc	.	8cc\	im	tka-	.
8B-\L 8d-	4d-/ 4f 4dd-	.	4dd-\	blau-	-ją-	[
8DD-\ 8D-	.	.	.	.	.	.
8G-\J 8d-	8B--/ 8f-X 8b--	[[	(16b--\LL	-em	-cym	.
.	.	.	16cc-X\JJ)	.	.	.
=3	=3	=3	=3	=3	=3	=3
!	!	!	!	!	!	!LO:HP:a
8G-\L 8d-	4B--/ 4f-X 4b--	>	(4b--~\	Him-	nie-	>
8DD-\ 8D-	.	.	.	.	.	.
8A-\J 8d-	8f-/ 8a-	.	16a-/LL	.	.	.
.	.	.	16b--/JJ	.	.	.
8A-\L 8d-	4f-/ 4a-	.	4a-~>/)	.	.	.
8DD-\ 8D-	.	.	.	.	.	.
!	!LO:TX:b:i:t=poco rit.	!	!	!	!	!
8B--\J 8d-	8e-/ 8g-	.	(16g-/LL	-mel-	-bios	.
.	.	.	16a-/JJ)	.	.	.
8B--\L 8c	4e--/ 4g-	.	4g-/	-szelt,	sklep,	]
8DD-\ 8D-	.	.	.	.	.	.
[8A-\J	8d-/) 8fn	]]	8r	.	.	.
!!LO:LB:g=original	!	!	!	!	!	!
=4	=4	=4	=4	=4	=4	=4
8A-\L] 8f	(>4d-/ 4a- 4dd-	<	4a-/	Nicht	A-	.
8DD-\ 8D-	.	.	.	.	.	.
!	!	!	!	!	!	!LO:HP:a
8An\J 8e-	8c/ 8f 8cc	.	8an/	mit	-ni	<
8B-\L 8d-	4d-/ 4f 4dd-	.	4b-\	Ro-	ró-	.
8DD-\ 8D-	.	.	.	.	.	.
8A\J 8e-	8c/ 8f 8cc	.	8ee-\	-sen	-żom	.
8B-\L 8d-	4d-/ 4f 4dd-	.	8dd-\	auf	gdy	.
8DD-\ 8D-	.	.	8cc\	duft'-	wo-	[
8G-\J 8d-	8B--/ 8f-X 8b--	[[	(16b--\LL	-gem	-nią	.
.	.	.	16cc-X\JJ)	.	.	.
=5	=5	=5	=5	=5	=5	=5
8G-\L 8d-	4B--/ 4f-X 4b--	.	(4b--~\	Blu-	pie-	.
8DD-\ 8D-	.	.	.	.	.	.
!	!	!	!	!	!	!LO:HP:a
8A-\J 8d-	8f-/ 8a-	>	16a-/LL	.	.	>
.	.	.	16b--/JJ	.	.	.
8A-\L 8d-	4f-/ 4a-	.	4a-~/)	.	.	.
8DD-\ 8D-	.	.	.	.	.	.
8B--\J 8d-	8e-/ 8g-	.	(16g-/LL	-men-	-szczą	.
.	.	.	16a-/JJ)	.	.	.
!	!LO:TX:b:i:t=poco rit.	!	!	!	!	!
8B--\L 8c	4e--/ 4g-	.	4g-/	-feld,	step,	]
8DD-\ 8D-	.	.	.	.	.	.
8A-\J	8d-/) 8fn	]]	8r	.	.	.
=6	=6	=6	=6	=6	=6	=6
*^	*	*	*	*	*	*
!	!	!	!	!	!	!	!LO:DY:a
(4e-^/	8e-\L	(>4.c-X~>:/ 4.f: 4.a-:	<	(4a-/	Selbst	A-	p
.	8DD-\ 8D-	.	.	.	.	.	.
!	!	!	!	!LO:N:n=2:acc=n-	!	!	!LO:HP:t=poco cresc.
8d-/)	8d-\J	.	.	8b-\)	.	-ni	<
(4e-^/	8e-\L	4.c-~>:/ 4.f: 4.a-:	.	(<4a-/	mit	też	.
.	8DD-\ 8D-	.	.	.	.	.	.
8d-/)	8d-\J	.	.	8b-\)	dem	.	.
(4e-^/	8e-\L	4.c-~>:/) 4.f: 4.a-:	[[	8.a-/	e-	słoń-	.
.	8DD-\ 8D-	.	.	.	.	.	.
.	.	.	.	16b-\	-wig-	-cu,	.
8d-/)	8d-\J	.	.	8a-/	-en	gdy	.
*v	*v	*	*	*	*	*	*
!!LO:LB:g=original	!	!	!	!	!	!
=7	=7	=7	=7	=7	=7	=7
*	*^	*	*	*	*	*
(8An^\L 8f#X	4.c#X~/ 4.an 4.cc#X	4.ryy	>	4cc#X\	Son-	lśni	.
8CC#X\ 8C#X	.	.	.	.	.	.	.
!	!	!	!	!	!	!	!LO:HP:a
8En\J) 8en	.	.	.	8dd#X\	-nen-	z nad	>
(8A^\L 8f#	(4c#/ 4cc#	4.a\	.	([4.cc#\	-licht,	skał,	.
8CC#\ 8C#	.	.	.	.	.	.	.
8E\J) 8e	8d#X/ 8dd#X	.	.	.	.	.	.
(8A^\L 8f#	4.c#/) 4.a 4.cc#	4.ryy	.	8cc#\L]	.	.	.
8CC#\ 8C#	.	.	.	8bn\J)	.	.	.
8E\J) 8e	.	.	]]	8an/	ver-	Zu-	]
=8	=8	=8	=8	=8	=8	=8	=8
*	*	*	*	*	*	*	*^
*	*	*	*^	*	*	*	*	*
!	!	!	!	!	!	!	!	!LO:DY:a	!
!	!	!	!LO:HP:b	!	!	!	!	!LO:HP:a	!
8Gn^\L 8en	(4c#X/ 4cc#X	4.an\	<	.	4cc#X\	-glei-	-lej-	p <	.
(8C#X\	.	.	.	.	.	.	.	.	.
8CC#X\J)	8d#X/ 8dd#X	.	.	.	8dd#X\	-che	-kę	.	.
8G^\L 8e	4c#/ 4cc#	4.a\	.	.	4cc#\	ich	bym,	.	.
(8C#\	.	.	.	.	.	.	.	.	.
!	!	!	!	!LO:HP:a	!	!	!	!	!LO:HP:a
8CC#\J)	8d#/ 8dd#	.	.	<	8dd#\	Zu-	me	.	<
8G^\L 8e	4c#/ 4cc#	4.a\	.	.	8cc#\	-lei-	dziew-	.	.
(8C#\	.	.	.	.	8bn\	-kha,	-czę,	.	.
8CC#\J)	8d#/) 8dd#	.	[	.	8an/	mein	przy-	[[	.
*	*	*	*v	*v	*	*	*	*	*
*	*	*	*	*	*	*	*v	*v
=9	=9	=9	=9	=9	=9	=9	=9
*	*	*	*^	*	*	*	*
!LO:TX:a:i:t=ten.	!	!	!	!LO:HP:t=dim.	!	!	!	!LO:HP:a
!	!	!	!LO:HP:b	!	!	!	!	!
8F#X^\L 8c#X 8f#X	((4a#X/ 4cc#X	[4.en\ [>4.ff#X	>	>	[4.ff#X\	Mäd-	-rów-	mf >
(8C#X\	.	.	.	.	.	.	.	.
8CC#X\J)	8bn/) 8dd#X	.	.	.	.	.	.	.
8F#^\L 8c# 8f#	(4a#/ 4cc#	4.e\] 4.ff#]	.	.	4ff#\]	.	.	.
(8C#\	.	.	.	.	.	.	.	.
!	!LO:TX:b:i:t=rallent.	!	!	!	!	!	!	!
8CC#\J)	8b/) 8dd#	.	.	.	8dd#X\	-chen	-nać	.
!	!	!	!	!	!LO:TX:a:i:t=rall.	!	!	!
8Gn^\L 8c# 8gn	(4a#/ 4cc#	4.e\ 4.een	]	.	4cc#X\	nicht!	śmiał!	]
(8C#\	.	.	.	.	.	.	.	.
8CC#\J)	8b/))	.	.	.	8r	.	.	.
*	*	*	*v	*v	*	*	*	*
*	*v	*v	*	*	*	*	*
!!LO:PB:g=original	!	!	!	!	!	!
*kcancel	*kcancel	*	*kcancel	*	*	*
=10||	=10||	=10||	=10||	=10||	=10||	=10||
*k[]	*k[]	*	*k[]	*	*	*
!	!LO:TX:a:i:t=sehr zart	!	!	!	!	!
!	!LO:SIC:s=(4Gn'/ 4dn 4gn 4bn:t=kasowniki w nawiasie	!	!	!	!	!
!	!	!	!LO:SIC:s=4bn\:t=kasowniki w nawiasie	!	!	!
8r	(>4G'>/ 4d 4g 4b	<	4b\	Denn	Bo	.
!LO:SIC:s=8BBBn/L:t=kasowniki w nawiasie	!	!	!	!	!	!
(8BBB/L	.	.	.	.	.	.
!LO:SIC:s=8BBn'/J:t=kasowniki w nawiasie	!	!	!LO:SIC:s=8cc\n:t=kasowniki w nawiasie	!	!	!LO:HP:a
8BB'/J)	8r	.	8cc\	der	a-	<
!LO:SIC:s=(8Dn\L:t=kasowniki w nawiasie	!	!	!	!	!	!
(8D\L	4G'>:/ 4d: 4f#X: 4b:	.	4b\	En-	-nio-	.
!LO:SIC:s=8dn'\J):t=kasowniki w nawiasie	!	!	!	!	!	!
8d'\J)	.	.	.	.	.	.
8r	8r	[	8een\	-gel	-łów	.
.	.	.	(16qqdd/LL	.	.	[
.	.	.	16qqee/JJ)	.	.	.
4r	4G#X'>:/) 4d: 4fn: 4b:	.	8dd\	Bu-	mi-	.
.	.	.	8cc\	-sen	-łość	.
8r	8r	.	8b\	ist	nie	.
=11	=11	=11	=11	=11	=11	=11
*	*^	*	*	*	*	*
!	!	!	!	!	!	!	!LO:HP:a
(8BBB/L	4A':/ 4e: 4a: 4cc:	4.ryy	.	4a/	lie-	się-	>
8BB'/J)	.	.	.	.	.	.	.
(8B^\	8r	.	.	8b\	-bes-	-ga	.
!	!LO:TX:b:i:t=ten.	!	!	!	!	!	!
4A\	(4a^/	[4.c\ [4.e	<	[4.a/	-leer,	już,	.
8G\	8b/	.	.	.	.	.	.
4F#X\	4a/)	4c\] 4e]	[ >	4a/]	.	.	]
8Fn\)	8r	8r	]	8r	.	.	.
*	*v	*v	*	*	*	*	*
=12	=12	=12	=12	=12	=12	=12
8r	(>4F'>:/ 4c: 4f: 4a:	<	4a/	Un-	Peł-	.
(8BBB/L	.	.	.	.	.	.
!	!	!	!	!	!	!LO:HP:a
8BB'/J)	8r	.	8b\	-ter	-ne	<
(8Cn\L	4F'>:/ 4c: 4e: 4a:	.	4a/	Ro-	cier-	.
8c'\J)	.	.	.	.	.	.
8r	8r	.	8dd\	-sen	-ni	.
.	.	.	(16qqcc/LL	.	.	[
.	.	.	16qqdd/JJ)	.	.	.
4r	4F#X'>:/) 4c: 4d#X: 4a:	[	8cc\	dro-	są	.
.	.	.	8b\	-hen	won-	.
8r	8r	.	8a/	die	-ne	.
!!LO:LB:g=original	!	!	!	!	!	!
=13	=13	=13	=13	=13	=13	=13
*	*^	*	*	*	*	*
!	!	!	!	!	!	!	!LO:HP:a
(8BBB/L	4G':/ 4dn: 4g: 4b:	4.ryy	.	4g/	Dor-	ga-	>
8BB'/J)	.	.	.	.	.	.	.
(8A^\	8r	.	.	8a/	-nen	-je	.
!	!LO:TX:b:i:t=ten.	!	!	!	!	!	!
4G\	(4g^/	[4.B\ [4.d	.	[4.g/	her,	róż,	.
8F#X\	8a/	.	.	.	.	.	.
4E\	4g/)	4B\] 4d]	.	4g/]	.	.	]
8D\)	8r	8r	.	8r	.	.	.
*	*v	*v	*	*	*	*	*
*	*clefF4	*	*	*	*	*
=14	=14	=14	=14	=14	=14	=14
*^	*	*	*	*	*	*
8r	4.ryy	4D#X:\ 4A: 4c: 4f#X:	.	4f#X/	Und	Pierz-	.
(8BBB/L	.	.	.	.	.	.	.
!	!	!	!	!LO:TX:a:i:t=molto espr.	!	!	!LO:DY:a
8BB/J)	.	8r	.	8g/	die	-cha	<
!LO:TX:b:i:t=ten.	!	!LO:TX:b:i:t=ten.	!LO:DY:t=poco sf	!	!	!	!
[4.A/	(4.D#X\	([4.c^\ 4.f#	sf >	(>4f#/	Son-	świa-	.
.	.	.	.	8b\)	.	.	.
!	!	!	!	!	!	!	!LO:HP:a
4A/]	4Fn\)	4c\]) 4fn	.	(8a/L	-ne	-tło	[ >
.	.	.	.	8g/J)	.	.	.
8r	8ryy	8r	]	8fn/	ver-	przed	]]
*	*	*clefG2	*	*	*	*	*
=15	=15	=15	=15	=15	=15	=15	=15
*	*	*^	*	*	*	*	*
!	!	!LO:TX:a:i:t=espr.	!	!	!	!	!	!LO:DY:a
8D#X/L 8A	4.ryy	(4f#X/	4.c\	<	4f#X/	-hüllt	no-	<
(8BBB/	.	.	.	.	.	.	.	.
8BB/J)	.	8g/	.	.	8g/	des	-cą	.
!	!	!	!	!	!LO:TX:a:i:t=rit.	!	!	!
[4.A/	(4.D#\	4f#/	2.c\	[[	4f#/	Nachts	z słoń-	[
!	!	!LO:TX:b:i:t=riten.	!	!	!	!	!	!LO:DY:a
.	.	8b/	.	>	8f#/	ihr	-ca	>
4A/]	4Fn\)	8a/L	.	.	4.fn/	Licht;	lic;	]]
.	.	8g/	.	.	.	.	.	.
8r	8ryy	8fn/J)	.	]]	.	.	.	.
*v	*v	*	*	*	*	*	*	*
!!LO:LB:g=original	!	!	!	!	!	!	!
=16	=16	=16	=16	=16	=16	=16	=16
!	!LO:TX:b:i:t=marc.	!	!	!	!	!	!
!	!LO:TX:t=P:problem: bracketed notes	!	!	!	!	!	!
8r	4.c#X/ 4.e	(4.G</	<	4r	.	.	.
(8AAA#X\L	.	.	.	.	.	.	.
!	!	!	!	!	!	!	!LO:HP:a
8AA#X\J)	.	.	.	8f#X/	Sie	Zu-	<
!	!LO:TX:t=P:problem: bracketed notes	!	!	!	!	!	!
(8AAAn\L	[4.cn/ [4.e	4G<^/	.	4e/	al-	-lej-	.
8AAn\J)	.	.	.	.	.	.	.
8r	.	8F#X</	.	8a/	-le	-ki	.
4r	4c/] 4e]	4E</)	[ >	8g/	glei-	wdzię-	.
.	.	.	.	8f#/	-chen	-kom	[
8r	8r	8r	]]	8e/	Zu-	nie	.
=17	=17	=17	=17	=17	=17	=17	=17
!	!LO:TX:t=P:problem: bracketed notes	!	!	!	!	!	!LO:HP:a
8r	4.c#X/ 4.e	(4.G</	<	4e/	-lei-	spro-	>
(8AAA#X\L	.	.	.	.	.	.	.
8AA#X\J)	.	.	.	8f#X/	-kha	-sta	.
!	!LO:TX:t=P:problem: bracketed notes	!	!	!	!	!	!
(8AAAn\	[4.cn/ [4.e	4G</	.	[4.e/	nicht.	nic.	.
[4AAn\)	.	.	.	.	.	.	.
.	.	8F#X</	.	.	.	.	.
4.AA\_	4.c/] 4.e]	4F#</	[ >	4e/]	.	.	]
.	.	8E</)	.	8r	.	.	.
=18	=18	=18	=18	=18	=18	=18	=18
*^	*	*	*	*	*	*	*
!	!	!LO:TX:a:i:t=rallent.	!LO:SIC:s=[2.cn\:t=kasowniki w nawiasie	!	!	!	!	!
(4G/	8AA\]	[2.e/	[2.c\	] <	8%9r	.	.	.
.	[4AA\	.	.	.	.	.	.	.
8F#X/	.	.	.	.	.	.	.	.
4F#/	2.AA\]	.	.	.	.	.	.	.
8E/	.	.	.	.	.	.	.	.
4.G/)	.	8e/]	8c\L]	[	.	.	.	.
.	.	4e/	8c\	.	.	.	.	.
.	.	.	[8c#X\J	.	.	.	.	.
*v	*v	*	*	*	*	*	*	*
*	*v	*v	*	*	*	*	*
!!LO:LB:g=original	!	!	!	!	!	!
=19||	=19||	=19||	=19||	=19||	=19||	=19||
*k[b-e-a-d-g-]	*k[b-e-a-d-g-]	*	*k[b-e-a-d-g-]	*	*	*
!	!LO:TX:a:i:t=Tempo I.	!	!LO:TX:a:i:t=dolce	!	!	!
!LO:SIC:s=8A-/L 8fn:t=kasownik i bemol w nawiasie	!LO:SIC:s=(4d-/] 4a- 4dd-:t=bemole w nawiasie	!	!LO:SIC:s=(4a-/:t=bemol w nawiasie	!	!	!
8A-/L 8f	(>4d-/] 4a- 4dd-	.	(4a-/	Nichts	Me	.
!LO:SIC:s=8AAA-/ 8AA-:t=bemole w nawiasie	!	!	!	!	!	!
8AAA-/ 8AA-	.	.	.	.	.	.
!	!	!	!	!	!	!LO:HP:a
8An/J 8e-	8c/ 8f 8cc	<	8an/)	.	.	<
8B-/L 8d-	4d-/ 4f 4dd-	.	4b-\	fin-	o-	.
8AAA-/ 8AA-	.	.	.	.	.	.
!	!	!	!LO:SIC:s=8ee-\:t=bemol w nawiasie	!	!	!
8A/J 8e-	8c/ 8f 8cc	.	8ee-\	-den,	-czy	.
!	!	!	!LO:SIC:s=8dd-\:t=bemol w nawiasie	!	!	!
8B-/L 8d-	4d-/ 4f 4dd-	.	8dd-\	so	jak	.
8AAA-/ 8AA-	.	.	8cc\	weit	w dal	.
8G-/J 8d-	8B--/ 8f-X 8b--	[[	(16b--\LL	das	wszech-	[
.	.	.	16cc-X\JJ)	.	.	.
=20	=20	=20	=20	=20	=20	=20
8G-/L 8d-	4B--/ 4f-X 4b--	.	(4b--\	Welt-	-świa-	.
8AAA-/ 8AA-	.	.	.	.	.	.
!	!	!	!	!	!	!LO:HP:a
8A-/J 8d-	8f-/ 8a-	>	16a-/LL	.	.	>
.	.	.	16b--/JJ	.	.	.
8A-/L 8d-	4f-/ 4a-	.	4a-/)	.	.	.
8AAA-/ 8AA-	.	.	.	.	.	.
8B--/J 8d-	8e-/ 8g-	.	(16g-/LL	-all	-ta	.
.	.	.	16a-/JJ)	.	.	.
8B--/L 8c	4e--/ 4g-	.	4g-/	reicht,	mkną,	]
8AAA-/ 8AA-	.	.	.	.	.	.
[>8A-/J	8d-/) 8fn	]	8f/	die	Nie	.
!!LO:PB:g=original	!	!	!	!	!	!
=21	=21	=21	=21	=21	=21	=21
*^	*^	*	*	*	*	*
*	*^	*	*	*	*	*	*	*
*	*	*	*	*	*	*	*	*	*^
!	!	!	!LO:TX:a:i:t=espr.	!	!	!	!	!	!LO:DY:a	!
16A-\LL] 16d- 16f	2ryy	2.ryy	(4dd-\ 4aa- 4ddd-	2ryy	p <	8a-/	Blik-	znaj-	<	.
(16AAA-\	.	.	.	.	.	.	.	.	.	.
16AA-\	.	.	.	.	.	8a-/	-ke,	-dą	.	.
16An\	.	.	.	.	.	.	.	.	.	.
16e-\	.	.	8cc\ 8gg- 8ccc	.	.	8an/	was	nic	.	.
16an\JJ)	.	.	.	.	.	.	.	.	.	.
!	!	!	!	!	!	!LO:N:n=2:acc=n-	!	!	!	!LO:HP:a
16B-\LL 16d- 16b-	.	.	4dd-\ 4ff 4ddd-	.	.	8b-\	mei-	po	.	<
(16AAA-X\	.	.	.	.	.	.	.	.	.	.
16AA-X\	4ryy	.	.	2ryy	.	8cc\	-ner	nad	.	.
16An\	.	.	.	.	.	.	.	.	.	.
16e-\	.	.	8cc\ 8gg- 8ccc	.	.	8ee-\	Zu-	Zu-	.	.
16an\JJ)	.	.	.	.	.	.	.	.	.	.
16B-/LL 16d- 16b-	8ryy	4ryy	4dd-\ 4ff 4ddd-	.	.	4dd-\	-lei-	-lej-	.	.
16AAA-X/	.	.	.	.	.	.	.	.	.	.
16AA-X/	16ryy	.	.	.	.	.	.	.	.	.
16G-/	[8.G-\	.	.	.	.	.	.	.	.	.
16c/	.	[<8c\	8ff-X/	16b--\LL 16bb--	.	8b--\	-kha	-kę	[	.
[>16g-/JJ	.	.	.	16cc-X\JJ 16ccc-X	.	.	.	.	.	.
*	*	*	*	*	*	*	*	*	*v	*v
=22	=22	=22	=22	=22	=22	=22	=22	=22	=22
!	!	!	!	!	!	!	!	!	!LO:DY:a
!	!	!	!	!	!	!	!	!	!LO:DY:a
16G-/LL] 16c] 16g-]	8.ryy	4ryy	4ee-/	4b--\ 4bb--	mf >	(2.gg-\	gleicht!	mą!	mf >
16AAA-/	.	.	.	.	.	.	.	.	.
16AA-/	.	.	.	.	.	.	.	.	.
16E-/	[8.E-\	.	.	.	.	.	.	.	.
16c/	.	[<8c\	[8ee-/	16a-\LL 16aa-	.	.	.	.	.
[16e-/JJ	.	.	.	16b--\JJ 16bb--	.	.	.	.	.
!	!	!	!LO:TX:i:b:t=rall.	!	!	!	!	!	!
16E-/LL] 16c] 16e-]	4ryy	4ryy	4ee-/]	4a-\ 4aa-	.	.	.	.	.
16GGG-/	.	.	.	.	.	.	.	.	.
16GG-/	.	.	.	.	.	.	.	.	.
[16C/J	.	.	.	.	.	.	.	.	.
8C/J_ [8A-	2ryy	2ryy	[8a-/	16e-\LL 16ee-	.	.	.	.	.
.	.	.	.	16f\JJ 16ff	.	.	.	.	.
8C\] 8A-]	.	.	4a-/]	4e-\ 4ee-	.	4ccn\)	.	.	.
(8FFF/L 8FF	.	.	.	.	.	.	.	.	.
8EEEn/J) 8EEn	.	.	8ryy	8a-\) 8aa-	]	8r	.	.	]
*v	*v	*v	*	*	*	*	*	*	*
*	*v	*v	*	*	*	*	*
!!LO:LB:g=original	!	!	!	!	!	!
=23|	=23|	=23|	=23|	=23|	=23|	=23|
*M6/8	*M6/8	*	*M6/8	*	*	*
*	*^	*	*	*	*	*
!	!LO:TX:a:i:t=poco più lento	!	!	!LO:TX:a:i:t=molto espr.	!	!	!
(16FFF/LL	4.dd-/	(>4a-\ 4aa-	<	4dd-^\	Schön,	Kras,	.
16FF/	.	.	.	.	.	.	.
16AA-/	.	.	.	.	.	.	.
16D-/	.	.	.	.	.	.	.
16A-/	.	16g-\LL) 16gg-	.	8r	.	.	.
16d-/JJ)	.	16a-\JJ 16aa-	.	.	.	.	.
!LO:TX:a:i:t=ten.	!	!	!	!	!	!	!
[4An^\ [4e-	[4a-/	[4g-^\ [>4gg-	[	8ee-~\	dorn-	cnót	.
.	.	.	.	8.dd-~\	-los,	peł-	.
16A\] 16e-]	16a-/]	16g-\] 16gg-]	.	.	.	.	.
16r	16r	16ryy	.	16cc\	voll	-na	.
=24	=24	=24	=24	=24	=24	=24	=24
(16FFF/LL	4.dd-/	4a-\ (>4aa-	<	8.a-/	e-	wiecz-	.
16FF/	.	.	.	.	.	.	.
16AA-/	.	.	.	.	.	.	.
16D-/	.	.	.	16a-/	-wi-	-nej	.
16A-/	.	16g-\LL 16gg-)	.	8dd-\	-gem	mi-	.
16d-/JJ)	.	16a-\JJ 16aa-	.	.	.	.	.
!LO:TX:a:i:t=ten.	!	!	!	!	!	!	!
[4An^\ [4e-	[4cc/	[4g-^\ [>4gg-	[	(8ee-^\L	Lie-	-ło-	.
!	!	!	!	!LO:TX:a:i:t=riten.	!	!	!
.	.	.	.	8dd-\J)	.	.	.
!LO:TX:a:i:t=riten.	!	!	!	!	!	!	!
16A\] 16e-]	16cc/]	16g-\] 16gg-]	.	8cc\	-bes	-ści	.
16r	16r	16ryy	.	.	.	.	.
*	*v	*v	*	*	*	*	*
!!LO:LB:g=original	!	!	!	!	!	!
=25	=25	=25	=25	=25	=25	=25
*^	*	*	*	*	*	*
*	*^	*	*	*	*	*	*
*	*	*^	*	*	*	*	*	*
!	!	!	!	!	!	!	!	!	!LO:DY:a
16FFF-X/LL	8ryy	8.ryy	4ryy	4.d-/ 4.a- 4.b-	<	([4.dd-^\	Schein!	lśnień!	>
16FF-X/	.	.	.	.	.	.	.	.	.
16D-/	[4D-\	.	.	.	.	.	.	.	.
16A-/	.	[<8.A-\	.	.	.	.	.	.	.
16B-/	.	.	[8B-\	.	.	.	.	.	.
[>16d-/JJ	.	.	.	.	.	.	.	.	.
4D-\] 4A-] 4B-] 4d-]	8ryy	4.ryy	4.ryy	(>16a-/LL	[	4dd-\]	.	.	.
!	!	!	!	!LO:TX:b:i:t=riten.	!	!	!	!	!
.	.	.	.	16b-/	.	.	.	.	.
.	4ryy	.	.	16a-/	.	.	.	.	.
.	.	.	.	16d-/	>	.	.	.	.
8ryy	.	.	.	16B-</	.	8a-/)	.	.	]]
.	.	.	.	16A-</JJ)	]]	.	.	.	.
*v	*v	*v	*v	*	*	*	*	*	*
=26	=26	=26	=26	=26	=26	=26
!	!	!	!	!	!	!LO:HP:a
16r	(8d-'/L 8gn 8b-	p <	8b-\	Kann	Zu-	<
(8EEE-/L	.	.	.	.	.	.
.	8d-'/ 8g-X 8b-	.	8b-\	sie	-lej-	.
8EE-/)	.	.	.	.	.	.
.	8d-'/J) 8g- 8b--	.	16b--\	mit	-ka	.
([>16E-^>/Jk	.	.	16b--\	sich	mi	[
!	!LO:TX:b:i:t=rit.	!	!	!	!	!LO:HP:a
16.E-\LL]	4.c/ 4.g- 4.a-	[ > ]]	8a-/	selbst	ży-	>
32F\JJk	.	.	.	.	.	.
4E-\)	.	.	8a-/	nur	-cia	.
.	.	.	8e-/	ver	o-	]]
*	*clefF4	*	*	*	*	*
!!LO:LB:g=original	!	!	!	!	!	!
=27	=27	=27	=27	=27	=27	=27
*^	*	*	*	*	*	*
!	!	!	!	!	!	!	!LO:HP:a
16r	8ryy	(8D-'>\L 8G- 8B-	.	4d-/	gli-	-zła-	<
8EEE-/L	.	.	.	.	.	.	.
!	!	!	!LO:DY:t=più p	!	!	!	!
.	16ryy	8D-'\ 8G- 8B-	p >	.	.	.	.
8EE-/	N[8EE-\	.	.	.	.	.	.
.	.	8D-'\J) 8G- 8B--	.	8g-/	-chen	-ca	.
N[>16E-/Jk	16ryy	.	.	.	.	.	.
!	!	!LO:TX:b:i:t=riten.	!	!	!	!	!
4EE-/N] 4E-]N	8ryy	4C;\ 4G- 4A-	.	4e-;/	sein!	dzień!	[
.	4ryy	.	.	.	.	.	.
8EE--/ 8E--	.	8r	]	8r	.	.	.
*v	*v	*	*	*	*	*	*
*	*clefG2	*	*	*	*	*
=28	=28	=28	=28	=28	=28	=28
*M9/8	*M9/8	*	*M9/8	*	*	*
*	*^	*	*	*	*	*
!	!LO:TX:a:i:t=Tempo I.	!	!	!	!	!	!
(8B--\L 8d- 8f	(4dd-~/ 4ff	(>8b--\L	pp	8%9r	.	.	.
8DD-\ 8D-	.	8A-\ 8a-	.	.	.	.	.
8B--\J) 8d- 8f	8dd-'/) 8ff	8b--\J)	.	.	.	.	.
!	!	!	!LO:HP:a	!	!	!	!
(8B--\L 8d- 8f	(4dd-~/ 4ff	(>8b--\L	>	.	.	.	.
8DD-\ 8D-	.	8A-\ 8a-	.	.	.	.	.
8B--\J) 8d- 8f	8dd-'/) 8ff	8b--\J)	.	.	.	.	.
(8B--\L 8d- 8f	(4dd-~/ 4ff	8b--\L	.	.	.	.	.
!	!	!LO:N:n=2:acc=n-	!	!	!	!	!
!	!	!LO:N:n=1:acc=n-	!	!	!	!	!
8DD-\ 8D-	.	8B-\ 8b-	.	.	.	.	.
!	!LO:TX:a:i:t=riten.	!	!	!	!	!	!
8B--\J) [<8d- [8f	[8dd-'/) [8ff	8b--\J	]]	.	.	.	.
=29	=29	=29	=29	=29	=29	=29	=29
[2.A-\ 2.d-_ 2.f_	2.dd-/_ 2.ff_	[2.a-\	ppp	8%9r;	.	.	.
!LO:TX:b:B:t=1905.	!	!	!	!	!	!	!
4.A-;\] 4.d-] 4.f]	4.dd-;/] 4.ff]	4.a-\]	.	.	.	.	.
*	*v	*v	*	*	*	*	*
==	==	==	==	==	==	==
*-	*-	*-	*-	*-	*-	*-
!!!system-decoration: s1{(s2,s3)}
!!!RDF**kern: N = linked
!!!RDF**kern: > = above
!!!RDF**kern: < = below
!!!ENC: Berenika Jozajtis
!!!END: 2023-08-30
!!!EED: Jan Barakat
!!!EEV: 2023-09-26
